public/logos/FHLOGO-footer.svg

<svg width="155" height="42" viewBox="0 0 155 42" fill="none" xmlns="http://www.w3.org/2000/svg">
<g clip-path="url(#clip0_856_23)">
<path d="M117.843 7.64187C117.202 7.05171 116.446 6.59773 115.58 6.28202C114.713 5.95599 113.764 5.79297 112.732 5.79297H107.227V19.1645H112.769C113.788 19.1645 114.725 19.0056 115.58 18.6919C116.446 18.3638 117.202 17.9057 117.843 17.3156C118.485 16.7254 118.982 16.0197 119.333 15.2025C119.698 14.3854 119.88 13.4754 119.88 12.4684C119.88 11.4738 119.696 10.57 119.331 9.75283C118.98 8.93568 118.483 8.23203 117.841 7.64187H117.843ZM115.978 14.5443C115.677 15.1097 115.241 15.5368 114.676 15.8278C114.123 16.1167 113.469 16.2611 112.713 16.2611H110.602V8.69838H112.713C113.469 8.69838 114.121 8.84489 114.676 9.13378C115.229 9.42267 115.656 9.84981 115.959 10.4173C116.273 10.9682 116.432 11.6471 116.432 12.4519C116.432 13.269 116.279 13.9665 115.98 14.5463L115.978 14.5443Z" fill="#FFF8F2"/>
<path d="M131.636 16.2941V19.1645H121.637V5.79297H131.523V8.6633H125.039V11.0879H130.953V13.884H125.039V16.2941H131.636Z" fill="#FFF8F2"/>
<path d="M56.1566 8.6633V11.2551H62.1263V14.1254H56.1566V19.1645H52.7539V5.79297H62.4297V8.6633H56.1566Z" fill="#FFF8F2"/>
<path d="M75.5115 7.70377C74.8924 7.0971 74.164 6.63075 73.3283 6.30265C72.4905 5.96218 71.5743 5.79297 70.5818 5.79297C69.5892 5.79297 68.671 5.96218 67.8332 6.30265C66.9954 6.63075 66.269 7.0971 65.65 7.70377C65.033 8.31044 64.5481 9.01822 64.1932 9.83124C63.8548 10.6319 63.6855 11.5047 63.6855 12.4519C63.6855 13.399 63.8609 14.2843 64.2117 15.1076C64.5625 15.9206 65.0495 16.6305 65.6686 17.2372C66.2979 17.8438 67.0325 18.3164 67.8703 18.6548C68.7081 18.9953 69.6243 19.1645 70.6189 19.1645C71.6135 19.1645 72.505 19.0014 73.3304 18.6734C74.1681 18.3349 74.8945 17.8603 75.5135 17.2557C76.1326 16.6367 76.6093 15.9206 76.9497 15.1076C77.3005 14.2946 77.4759 13.4176 77.4759 12.4705C77.4759 11.5233 77.3005 10.6443 76.9497 9.83124C76.6093 9.01822 76.1305 8.31044 75.5135 7.70377H75.5115ZM73.71 14.4535C73.4191 15.023 73.0064 15.4667 72.4719 15.7824C71.9396 16.0981 71.3081 16.257 70.5818 16.257C70.0349 16.257 69.5438 16.1724 69.1064 16.0011C68.671 15.8195 68.2933 15.5657 67.9776 15.2376C67.664 14.8971 67.4205 14.4989 67.2492 14.0367C67.0924 13.5621 67.014 13.0359 67.014 12.4519C67.014 11.6987 67.1584 11.0384 67.4494 10.4689C67.7403 9.89934 68.153 9.46188 68.6875 9.15854C69.2199 8.84489 69.8513 8.686 70.5797 8.686C71.1245 8.686 71.6156 8.77679 72.053 8.95838C72.4884 9.13997 72.8661 9.39997 73.1818 9.74045C73.4954 10.0685 73.7327 10.4627 73.8916 10.9228C74.0608 11.383 74.1454 11.8927 74.1454 12.4498C74.1454 13.2133 74.001 13.8819 73.71 14.4514V14.4535Z" fill="#FFF8F2"/>
<path d="M101.353 5.79297H104.727V19.1645H102.22L96.3739 11.7359V19.1645H92.998V5.79297H95.3546L101.353 13.3928V5.79297Z" fill="#FFF8F2"/>
<path d="M87.3619 5.79297H90.7853V13.593C90.7853 14.6702 90.5438 15.6338 90.061 16.4819C89.5802 17.3197 88.9075 17.978 88.047 18.4587C87.1968 18.9292 86.196 19.1624 85.0425 19.1624C83.889 19.1624 82.8944 18.9292 82.0195 18.4587C81.157 17.978 80.4843 17.3114 80.0035 16.4613C79.5227 15.6111 79.2812 14.6495 79.2812 13.5724V5.79297H82.6654V13.8221C82.6654 14.3029 82.7665 14.7217 82.9687 15.0767C83.1854 15.4192 83.4702 15.6854 83.8251 15.8773C84.1903 16.0548 84.5968 16.1435 85.0425 16.1435C85.4883 16.1435 85.8968 16.0548 86.2394 15.8773C86.5819 15.6875 86.8543 15.4192 87.0565 15.0767C87.2587 14.7341 87.3619 14.3235 87.3619 13.8427V5.79297Z" fill="#FFF8F2"/>
<path d="M140.656 13.5951C141.005 13.5167 141.333 13.4052 141.637 13.2628C142.34 12.9244 142.889 12.4581 143.279 11.8659C143.682 11.2633 143.882 10.5659 143.882 9.77347C143.882 8.98108 143.688 8.28981 143.298 7.69965C142.91 7.10948 142.367 6.64313 141.676 6.30265C140.997 5.96424 140.207 5.79297 139.301 5.79297H133.605V19.1645H136.981V13.7519H137.182L140.846 19.1645H144.75L140.659 13.5909L140.656 13.5951ZM136.979 8.30219H138.828C139.381 8.30219 139.802 8.44663 140.091 8.73759C140.392 9.0141 140.543 9.37934 140.543 9.83124C140.543 10.2832 140.392 10.667 140.091 10.9435C139.802 11.2097 139.381 11.3417 138.828 11.3417H136.979V8.30425V8.30219Z" fill="#FFF8F2"/>
<path d="M154.999 15.1096C154.999 16.3993 154.543 17.398 153.629 18.1058C152.727 18.8115 151.46 19.1644 149.828 19.1644C148.745 19.1644 147.802 18.9993 146.997 18.6712C146.205 18.3431 145.48 17.8251 144.824 17.1194L146.888 15.0353C147.34 15.5099 147.818 15.8751 148.33 16.131C148.842 16.3745 149.42 16.4983 150.066 16.4983C150.612 16.4983 151.035 16.4055 151.324 16.2239C151.63 16.0278 151.78 15.7678 151.78 15.4377C151.78 15.1343 151.671 14.8826 151.452 14.6886C151.233 14.4823 150.94 14.3048 150.575 14.1604C150.222 14.0015 149.826 13.855 149.387 13.7229C148.959 13.5764 148.528 13.4051 148.089 13.2112C147.664 13.0027 147.267 12.7531 146.902 12.4621C146.549 12.1691 146.262 11.8038 146.044 11.3664C145.825 10.9289 145.716 10.3862 145.716 9.74034C145.716 8.91287 145.91 8.20716 146.302 7.62112C146.702 7.03509 147.257 6.58524 147.963 6.26953C148.669 5.95381 149.49 5.79492 150.427 5.79492C151.363 5.79492 152.23 5.95381 153.023 6.26953C153.815 6.58731 154.465 7.02477 154.977 7.58604L152.893 9.64954C152.503 9.25954 152.106 8.96859 151.706 8.77049C151.304 8.57652 150.866 8.47954 150.389 8.47954C149.938 8.47954 149.585 8.55795 149.331 8.71478C149.075 8.87367 148.947 9.09859 148.947 9.39161C148.947 9.68462 149.056 9.92193 149.275 10.1035C149.494 10.2872 149.781 10.4502 150.134 10.5988C150.499 10.7329 150.895 10.8732 151.32 11.0176C151.76 11.1621 152.191 11.3354 152.618 11.5294C153.045 11.7234 153.433 11.973 153.788 12.2764C154.155 12.5818 154.446 12.9656 154.665 13.4278C154.884 13.89 154.993 14.4493 154.993 15.1096H154.999Z" fill="#FFF8F2"/>
<path d="M80.0557 26.3679C79.7194 25.5549 79.2509 24.843 78.6484 24.2322C78.052 23.6194 77.3505 23.1448 76.5519 22.8063C75.7657 22.47 74.9073 22.3008 73.9849 22.3008C73.0625 22.3008 72.1958 22.47 71.3952 22.8063C70.609 23.1448 69.9157 23.6194 69.3131 24.2322C68.7271 24.843 68.2669 25.557 67.9285 26.3679C67.6025 27.1686 67.4395 28.0373 67.4395 28.9741C67.4395 29.911 67.6025 30.7673 67.9285 31.5783C68.2649 32.3913 68.7353 33.1094 69.3337 33.7326C69.9342 34.3454 70.6317 34.8283 71.4303 35.177C72.2309 35.5134 73.0955 35.6826 74.02 35.6826C74.9444 35.6826 75.7801 35.5134 76.5684 35.177C77.367 34.8283 78.0624 34.3454 78.6484 33.7326C79.2509 33.1197 79.7173 32.4078 80.0557 31.5969C80.3921 30.7838 80.5613 29.9151 80.5613 28.9907C80.5613 28.0662 80.3921 27.1789 80.0557 26.3659V26.3679ZM78.1243 31.5783C77.7136 32.3273 77.1482 32.9216 76.4384 33.3591C75.7389 33.7842 74.9176 33.9967 73.9828 33.9967C73.2936 33.9967 72.656 33.8708 72.07 33.6212C71.4963 33.3715 70.9949 33.0289 70.5698 32.5894C70.1571 32.1396 69.8311 31.6092 69.5979 30.9964C69.3709 30.3732 69.2595 29.6984 69.2595 28.9721C69.2595 27.9981 69.4596 27.1356 69.8579 26.3845C70.2706 25.6354 70.8277 25.0473 71.5293 24.6222C72.2412 24.1951 73.0584 23.9846 73.9849 23.9846C74.6844 23.9846 75.32 24.1084 75.8957 24.3581C76.4693 24.5975 76.9687 24.94 77.3938 25.3898C77.8189 25.8397 78.1511 26.37 78.3884 26.9829C78.6257 27.5833 78.7454 28.2457 78.7454 28.9721C78.7454 29.9461 78.539 30.8148 78.1263 31.5762L78.1243 31.5783Z" fill="#FFF8F2"/>
<path d="M93.3253 22.2988V30.5879C93.3253 31.273 93.1809 31.8673 92.8899 32.3749C92.6113 32.8825 92.2234 33.2746 91.7302 33.5552C91.2494 33.8338 90.684 33.9741 90.0381 33.9741C89.3923 33.9741 88.8537 33.8338 88.3461 33.5552C87.8529 33.2767 87.4588 32.8825 87.1678 32.3749C86.8748 31.8673 86.7304 31.2668 86.7304 30.5693V22.2988H84.9434V30.6086C84.9434 31.5825 85.1662 32.4575 85.6078 33.2333C86.0515 33.9927 86.654 34.5952 87.4134 35.0389C88.1872 35.4722 89.0621 35.6848 90.0381 35.6848C91.0142 35.6848 91.9015 35.4702 92.6629 35.0389C93.4244 34.5973 94.0248 33.9927 94.4685 33.2333C94.9101 32.4719 95.1329 31.6032 95.1329 30.6271V22.3009H93.3274L93.3253 22.2988Z" fill="#FFF8F2"/>
<path d="M108.116 30.3033C107.891 29.841 107.592 29.4655 107.217 29.1787C106.843 28.8918 106.431 28.6525 105.981 28.4647C105.531 28.279 105.073 28.1098 104.613 27.9591C104.163 27.7961 103.75 27.6228 103.374 27.4329C103.001 27.2472 102.694 27.0223 102.456 26.7582C102.231 26.4837 102.12 26.1288 102.12 25.6893C102.12 25.1383 102.326 24.7153 102.739 24.414C103.152 24.1024 103.709 23.9456 104.408 23.9456C104.984 23.9456 105.49 24.057 105.927 24.284C106.377 24.5089 106.796 24.8453 107.184 25.2951L108.383 24.0962C107.958 23.5597 107.409 23.1264 106.734 22.8024C106.057 22.4661 105.296 22.2969 104.448 22.2969C103.672 22.2969 102.972 22.4413 102.347 22.7281C101.734 23.0026 101.247 23.4029 100.886 23.927C100.535 24.4388 100.36 25.064 100.36 25.8007C100.36 26.4631 100.471 27.012 100.696 27.4494C100.935 27.8869 101.241 28.2439 101.614 28.5183C101.988 28.7825 102.401 29.0074 102.85 29.1952C103.302 29.3706 103.752 29.5377 104.202 29.7007C104.652 29.8493 105.064 30.0247 105.438 30.2269C105.826 30.4126 106.131 30.6582 106.356 30.9574C106.581 31.2587 106.693 31.6507 106.693 32.1377C106.693 32.7258 106.455 33.188 105.981 33.5244C105.518 33.8607 104.899 34.03 104.124 34.03C103.348 34.03 102.673 33.8855 102.136 33.5987C101.6 33.2974 101.125 32.8599 100.713 32.2863L99.5137 33.4852C100.075 34.1971 100.719 34.7419 101.443 35.1154C102.167 35.4909 103.042 35.6766 104.068 35.6766C105.417 35.6766 106.486 35.3527 107.275 34.7027C108.075 34.0526 108.473 33.155 108.473 32.0057C108.473 31.3185 108.356 30.7469 108.116 30.2991V30.3033Z" fill="#FFF8F2"/>
<path d="M121.638 34.0484V35.6848H112.855V22.2988H121.638V23.9352H114.642V28.2128H121.01V29.7708H114.642V34.0484H121.638Z" fill="#FFF8F2"/>
<path d="M63.059 22.2988V35.6848H61.272V29.81H54.543V35.6848H52.7539V22.2988H54.543V28.1736H61.272V22.2988H63.059Z" fill="#FFF8F2"/>
<path d="M11.484 5.79297H5.79492V11.482H11.484V5.79297Z" fill="#F02820"/>
<path d="M35.6811 29.9922V35.6813H24.2988L29.9879 29.9922H35.679H35.6811Z" fill="#F02820"/>
<path d="M35.6831 5.79297V29.9917H29.9919V11.482H11.4844V5.79297H35.6831Z" fill="#9E1B1E"/>
<path d="M41.3742 0.101562V29.9914H35.6831V5.7927H11.4844V0.101562H41.3742Z" fill="#F02820"/>
<path d="M24.3001 35.6851L18.6111 41.3742H0.103516V11.4844H5.79259V35.6831H24.3001V35.6851Z" fill="#F02820"/>
<path d="M29.9917 29.994L24.3026 35.6831H5.79297V11.4844H11.482V29.994H29.9896H29.9917Z" fill="#9E1B1E"/>
<path d="M29.9939 11.4844V29.9919H11.4863V11.4844H29.9959H29.9939Z" fill="#590D0F"/>
</g>
<defs>
<clipPath id="clip0_856_23">
<rect width="155" height="41.4785" fill="white"/>
</clipPath>
</defs>
</svg>

<svg xmlns="http://www.w3.org/2000/svg" width="155" height="42" fill="none"><g clip-path="url(#a)"><path fill="#FFF8F2" d="M117.843 7.642a6.7 6.7 0 0 0-2.263-1.36q-1.3-.489-2.848-.489h-5.505v13.372h5.542q1.529-.002 2.811-.473a6.9 6.9 0 0 0 2.263-1.376 6.1 6.1 0 0 0 1.49-2.113q.547-1.226.547-2.735 0-1.49-.549-2.715a6.1 6.1 0 0 0-1.49-2.111zm-1.865 6.902a3 3 0 0 1-1.302 1.284q-.83.433-1.963.433h-2.111V8.698h2.111q1.132.001 1.963.436.829.433 1.283 1.283.472.827.473 2.035-.002 1.225-.452 2.094zM131.636 16.294v2.87h-9.999V5.794h9.886v2.87h-6.484v2.425h5.914v2.796h-5.914v2.41zM56.157 8.663v2.592h5.97v2.87h-5.97v5.04h-3.403V5.793h9.676v2.87zM75.512 7.704a6.45 6.45 0 0 0-2.184-1.401q-1.258-.51-2.746-.51-1.49 0-2.749.51a6.4 6.4 0 0 0-2.183 1.4 6.7 6.7 0 0 0-1.457 2.128 6.7 6.7 0 0 0-.508 2.62q0 1.422.527 2.657a6.6 6.6 0 0 0 1.457 2.13 6.8 6.8 0 0 0 2.201 1.417q1.257.51 2.749.51c.995 0 1.886-.164 2.711-.492a6.7 6.7 0 0 0 2.183-1.417 6.6 6.6 0 0 0 1.437-2.148q.525-1.218.526-2.638 0-1.42-.526-2.639a6.4 6.4 0 0 0-1.437-2.127zm-1.802 6.75a3.2 3.2 0 0 1-1.238 1.328q-.8.475-1.89.475a4 4 0 0 1-1.476-.256 3.3 3.3 0 0 1-1.128-.763 3.6 3.6 0 0 1-.729-1.201q-.235-.71-.235-1.585 0-1.13.435-1.983.436-.855 1.239-1.31.798-.472 1.892-.473.817 0 1.473.272a3.2 3.2 0 0 1 1.129.782q.47.493.71 1.183.253.69.253 1.527 0 1.146-.435 2.001zM101.353 5.793h3.374v13.372h-2.507l-5.846-7.43v7.43h-3.376V5.793h2.357l5.998 7.6zM87.362 5.793h3.423v7.8q0 1.616-.724 2.889a5.2 5.2 0 0 1-2.014 1.977q-1.275.704-3.004.703c-1.154 0-2.149-.233-3.024-.703a5.16 5.16 0 0 1-2.016-1.998q-.721-1.273-.722-2.889V5.793h3.384v8.03q0 .72.304 1.254.324.513.856.8a2.75 2.75 0 0 0 1.218.266c.445 0 .854-.088 1.196-.266q.514-.286.817-.8.305-.514.306-1.234zM140.656 13.595q.524-.118.981-.332 1.056-.509 1.642-1.397.604-.904.603-2.093 0-1.188-.584-2.073-.584-.886-1.622-1.397-1.017-.51-2.375-.51h-5.696v13.372h3.376v-5.413h.201l3.664 5.413h3.904l-4.091-5.574zm-3.677-5.293h1.849q.83 0 1.263.436.452.415.452 1.093c0 .452-.151.836-.452 1.113q-.433.399-1.263.398h-1.849v-3.0399999999999996M154.999 15.11q0 1.935-1.37 2.996-1.353 1.058-3.801 1.058-1.624 0-2.831-.493-1.189-.492-2.173-1.552l2.064-2.084q.676.712 1.442 1.096.768.366 1.736.367c.546 0 .969-.093 1.258-.274q.458-.293.456-.786a.96.96 0 0 0-.328-.75 2.7 2.7 0 0 0-.877-.528 10 10 0 0 0-1.188-.437 16 16 0 0 1-1.298-.512 6.5 6.5 0 0 1-1.187-.749 3.3 3.3 0 0 1-.858-1.096q-.328-.656-.328-1.626-.001-1.24.586-2.119.601-.879 1.661-1.351 1.059-.475 2.464-.475t2.596.475q1.187.475 1.954 1.316l-2.084 2.064q-.586-.583-1.187-.88a3 3 0 0 0-1.317-.29q-.677 0-1.058.235a.75.75 0 0 0-.384.677q0 .44.328.712.329.273.859.495.548.201 1.186.419c.44.144.871.317 1.298.511a5 5 0 0 1 1.17.747q.55.459.877 1.152.328.692.328 1.682zM80.056 26.368a6.6 6.6 0 0 0-1.408-2.136 6.4 6.4 0 0 0-2.096-1.426 6.5 6.5 0 0 0-2.567-.505c-.922 0-1.79.169-2.59.505a6.5 6.5 0 0 0-2.082 1.426 6.9 6.9 0 0 0-1.385 2.136q-.488 1.201-.489 2.606c0 .937.164 1.793.49 2.604a6.9 6.9 0 0 0 1.405 2.155 6.6 6.6 0 0 0 2.096 1.444q1.201.505 2.59.506c.924 0 1.76-.17 2.548-.506a6.4 6.4 0 0 0 2.08-1.444 6.7 6.7 0 0 0 1.408-2.136 6.8 6.8 0 0 0 .505-2.606c0-.925-.169-1.812-.505-2.625zm-1.932 5.21a4.7 4.7 0 0 1-1.686 1.781q-1.051.638-2.455.638a4.8 4.8 0 0 1-1.913-.376 4.6 4.6 0 0 1-1.5-1.032 4.9 4.9 0 0 1-.972-1.593 5.9 5.9 0 0 1-.338-2.024q0-1.46.598-2.588.62-1.124 1.671-1.762 1.067-.639 2.456-.637 1.049-.001 1.91.373.861.358 1.499 1.032t.994 1.593q.357.9.357 1.99 0 1.46-.619 2.603zM93.325 22.299v8.289q0 1.027-.435 1.787-.42.761-1.16 1.18-.722.42-1.692.42a3.4 3.4 0 0 1-1.692-.42 3.1 3.1 0 0 1-1.178-1.18q-.439-.76-.438-1.806V22.3h-1.787v8.31q.001 1.46.665 2.624a4.95 4.95 0 0 0 1.805 1.806q1.162.648 2.625.646c.976 0 1.864-.215 2.625-.646a4.9 4.9 0 0 0 1.806-1.806q.663-1.142.664-2.606v-8.326h-1.806zM108.116 30.303a3.1 3.1 0 0 0-.899-1.124 5.5 5.5 0 0 0-1.236-.714q-.677-.28-1.368-.506-.675-.243-1.239-.526a3 3 0 0 1-.918-.675q-.337-.41-.336-1.069 0-.824.619-1.275.62-.468 1.669-.468.864-.001 1.519.338.675.337 1.257 1.011l1.199-1.199a4.6 4.6 0 0 0-1.649-1.294q-1.015-.504-2.286-.505-1.164 0-2.101.431a3.44 3.44 0 0 0-1.461 1.199q-.526.768-.526 1.874 0 .993.336 1.648.359.657.918 1.07.562.395 1.236.676.677.263 1.352.506.675.223 1.236.526.581.28.918.73.337.452.337 1.18 0 .883-.712 1.387-.695.506-1.857.506c-.776 0-1.451-.145-1.988-.431q-.805-.453-1.423-1.313l-1.2 1.2q.844 1.068 1.93 1.63t2.625.56q2.024.001 3.207-.973 1.199-.974 1.198-2.697c0-.687-.117-1.26-.357-1.707zM121.638 34.048v1.637h-8.783V22.299h8.783v1.636h-6.996v4.278h6.368v1.558h-6.368v4.277zM63.059 22.299v13.386h-1.787V29.81h-6.729v5.875h-1.79V22.299h1.79v5.875h6.729v-5.875z"/><path fill="#F02820" d="M11.484 5.793h-5.69v5.689h5.69zM35.681 29.992v5.69H24.3l5.689-5.69h5.693"/><path fill="#9E1B1E" d="M35.683 5.793v24.199h-5.691v-18.51H11.484V5.793z"/><path fill="#F02820" d="M41.374.102v29.89h-5.69v-24.2h-24.2V.103zM24.3 35.685l-5.689 5.69H.104v-29.89h5.689v24.198H24.3z"/><path fill="#9E1B1E" d="m29.992 29.994-5.69 5.69H5.794v-24.2h5.689v18.51h18.51"/><path fill="#590D0F" d="M29.994 11.484v18.508H11.486V11.484h18.51z"/></g><defs><clipPath id="a"><path fill="#fff" d="M0 0h155v41.478H0z"/></clipPath></defs></svg>
